X:1415
T:French air
A:Wyresdale, Lancashire
B:E and J Winder, 1835-41
L:1/8
M:C
O:England
Z:Richard Robinson 
%%TUNEURL: http://www.leeds.ac.uk/music/Info/RRTuneBk/gettune/00001221.html
%%ID:00001221
K:C
c2c2 g2g2 | a2a2 g2z2 | f2f2 e2e2 | d2d2 c4 ::
g2g2 f2f2 | e2e2 (e2d2) | g2g2 f2f2 | (ec) (ge) d4 |\
c2c2 g2g2 | a2a2 g4 | f2f2 e2e2 | (dcde) c4 ::
